src/assets/images/google.svg

<?xml version="1.0" encoding="UTF-8"?>
<svg enable-background="new 0 0 512 512" version="1.1" viewBox="0 0 512 512" xml:space="preserve" xmlns="http://www.w3.org/2000/svg">
<path d="m113.47 309.41-17.822 66.532-65.139 1.378c-19.467-36.107-30.509-77.418-30.509-121.32 0-42.451 10.324-82.483 28.624-117.73h0.014l57.992 10.632 25.404 57.644c-5.317 15.501-8.215 32.141-8.215 49.456 2e-3 18.792 3.406 36.797 9.651 53.408z" fill="#FBBB00"/>
<path d="m507.53 208.18c2.94 15.486 4.473 31.479 4.473 47.824 0 18.328-1.927 36.206-5.598 53.451-12.462 58.683-45.025 109.92-90.134 146.19l-0.014-0.014-73.044-3.727-10.338-64.535c29.932-17.554 53.324-45.025 65.646-77.911h-136.89v-101.28h138.89 107.01z" fill="#518EF8"/>
<path d="m416.25 455.62 0.014 0.014c-43.871 35.263-99.601 56.362-160.27 56.362-97.491 0-182.25-54.491-225.49-134.68l82.961-67.91c21.619 57.698 77.278 98.771 142.53 98.771 28.047 0 54.323-7.582 76.87-20.818l83.383 68.262z" fill="#28B446"/>
<path d="m419.4 58.936-82.933 67.896c-23.335-14.586-50.919-23.012-80.471-23.012-66.729 0-123.43 42.957-143.96 102.72l-83.397-68.276h-0.014c42.606-82.145 128.44-138.27 227.38-138.27 62.115 0 119.07 22.126 163.4 58.936z" fill="#F14336"/>
</svg>

<?xml version="1.0" encoding="iso-8859-1"?>
<!-- Generator: Adobe Illustrator 19.0.0, SVG Export Plug-In . SVG Version: 6.00 Build 0)  -->
<svg version="1.1" id="Layer_1" xmlns="http://www.w3.org/2000/svg" xmlns:xlink="http://www.w3.org/1999/xlink" x="0px" y="0px"
	 viewBox="0 0 512 512" style="enable-background:new 0 0 512 512;" xml:space="preserve">
<path style="fill:#FBBB00;" d="M113.47,309.408L95.648,375.94l-65.139,1.378C11.042,341.211,0,299.9,0,256
	c0-42.451,10.324-82.483,28.624-117.732h0.014l57.992,10.632l25.404,57.644c-5.317,15.501-8.215,32.141-8.215,49.456
	C103.821,274.792,107.225,292.797,113.47,309.408z"/>
<path style="fill:#518EF8;" d="M507.527,208.176C510.467,223.662,512,239.655,512,256c0,18.328-1.927,36.206-5.598,53.451
	c-12.462,58.683-45.025,109.925-90.134,146.187l-0.014-0.014l-73.044-3.727l-10.338-64.535
	c29.932-17.554,53.324-45.025,65.646-77.911h-136.89V208.176h138.887L507.527,208.176L507.527,208.176z"/>
<path style="fill:#28B446;" d="M416.253,455.624l0.014,0.014C372.396,490.901,316.666,512,256,512
	c-97.491,0-182.252-54.491-225.491-134.681l82.961-67.91c21.619,57.698,77.278,98.771,142.53,98.771
	c28.047,0,54.323-7.582,76.87-20.818L416.253,455.624z"/>
<path style="fill:#F14336;" d="M419.404,58.936l-82.933,67.896c-23.335-14.586-50.919-23.012-80.471-23.012
	c-66.729,0-123.429,42.957-143.965,102.724l-83.397-68.276h-0.014C71.23,56.123,157.06,0,256,0
	C318.115,0,375.068,22.126,419.404,58.936z"/>
<g>
</g>
<g>
</g>
<g>
</g>
<g>
</g>
<g>
</g>
<g>
</g>
<g>
</g>
<g>
</g>
<g>
</g>
<g>
</g>
<g>
</g>
<g>
</g>
<g>
</g>
<g>
</g>
<g>
</g>
</svg>
